package/converter/svg/solid/file-user.svg

<svg xmlns="http://www.w3.org/2000/svg" viewBox="0 0 384 512"><!-- Font Awesome Pro 6.0.0-alpha2 by @fontawesome - https://fontawesome.com License - https://fontawesome.com/license (Commercial License) --><path d="M256 0V128H384L256 0ZM224 128V0H48C21.49 0 0 21.492 0 48V464C0 490.508 21.49 512 48 512H336C362.51 512 384 490.508 384 464V160H256C238.326 160 224 145.672 224 128ZM192 192C227.348 192 256 220.656 256 256S227.348 320 192 320C156.656 320 128 291.344 128 256S156.656 192 192 192ZM304 432C304 440.836 296.836 448 288 448H96C87.164 448 80 440.836 80 432C80 387.812 115.82 352 160 352H224C268.184 352 304 387.812 304 432Z"/></svg>

<svg xmlns="http://www.w3.org/2000/svg" viewBox="0 0 384 512"><!--! Font Awesome Pro 6.6.0 by @fontawesome - https://fontawesome.com License - https://fontawesome.com/license (Commercial License) Copyright 2024 Fonticons, Inc. --><path d="M64 0C28.7 0 0 28.7 0 64L0 448c0 35.3 28.7 64 64 64l256 0c35.3 0 64-28.7 64-64l0-288-128 0c-17.7 0-32-14.3-32-32L224 0 64 0zM256 0l0 128 128 0L256 0zM128 256a64 64 0 1 1 128 0 64 64 0 1 1 -128 0zM80 432c0-44.2 35.8-80 80-80l64 0c44.2 0 80 35.8 80 80c0 8.8-7.2 16-16 16L96 448c-8.8 0-16-7.2-16-16z"/></svg>
